lib/healthicons/icons/solid/symbols/question_triangle.svg

<svg fill="none" height="48" viewBox="0 0 48 48" width="48" xmlns="http://www.w3.org/2000/svg"><path clip-rule="evenodd" d="m23.1006 6.84867c.3649-.75005 1.4336-.75005 1.7985 0l16.4015 33.71413c.3231.6642-.1606 1.4374-.8993 1.4374h-32.80288c-.73864 0-1.22236-.7732-.89924-1.4374zm4.5906 15.13283c1.0298.6849 1.8064 1.7939 1.8064 3.2796 0 1.5787-.6368 2.7387-1.6679 3.4492-.4273.2945-.8871.4868-1.3298.6133v1.1764c0 .8284-.6716 1.5-1.5 1.5-.8285 0-1.5-.6716-1.5-1.5v-2.4414c0-.7896.6121-1.4439 1.3999-1.4966.554-.0371.9743-.1474 1.2277-.322.1066-.0734.1831-.1577.2405-.2723.0597-.1191.1296-.3338.1296-.7066 0-.3126-.123-.5523-.4678-.7817-.3921-.2608-1.0221-.4529-1.7786-.4769-.7485-.0238-1.4753.1225-2.0095.3815-.5369.2603-.7331.5518-.7885.7673-.2061.8024-1.0236 1.2858-1.826 1.0797s-1.2858-1.0236-1.0797-1.826c.3445-1.3413 1.3479-2.2175 2.3854-2.7205 1.0403-.5043 2.2629-.7171 3.4136-.6805 1.1429.0363 2.3623.324 3.3447.9775zm-2.6913 16.0185c1.1045 0 2-.8954 2-2s-.8955-2-2-2c-1.1046 0-2 .8954-2 2s.8954 2 2 2z" fill="#333" fill-rule="evenodd"/></svg>

<svg width="48" height="48" viewBox="0 0 48 48" fill="none" xmlns="http://www.w3.org/2000/svg">
<path fill-rule="evenodd" clip-rule="evenodd" d="M23.1006 6.84867C23.4655 6.09862 24.5342 6.09862 24.8991 6.84867L41.3006 40.5628C41.6237 41.227 41.14 42.0002 40.4013 42.0002H7.59842C6.85978 42.0002 6.37606 41.227 6.69918 40.5628L23.1006 6.84867ZM27.6912 21.9815C28.721 22.6664 29.4976 23.7754 29.4976 25.2611C29.4976 26.8398 28.8608 27.9998 27.8297 28.7103C27.4024 29.0048 26.9426 29.1971 26.4999 29.3236L26.4999 30.5C26.4999 31.3284 25.8283 32 24.9999 32C24.1714 32 23.4999 31.3284 23.4999 30.5L23.4999 28.0586C23.4999 27.269 24.112 26.6147 24.8998 26.562C25.4538 26.5249 25.8741 26.4146 26.1275 26.24C26.2341 26.1666 26.3106 26.0823 26.368 25.9677C26.4277 25.8486 26.4976 25.6339 26.4976 25.2611C26.4976 24.9485 26.3746 24.7088 26.0298 24.4794C25.6377 24.2186 25.0077 24.0265 24.2512 24.0025C23.5027 23.9787 22.7759 24.125 22.2417 24.384C21.7048 24.6443 21.5086 24.9358 21.4532 25.1513C21.2471 25.9537 20.4296 26.4371 19.6272 26.231C18.8248 26.0249 18.3414 25.2074 18.5475 24.405C18.892 23.0637 19.8954 22.1875 20.9329 21.6845C21.9732 21.1802 23.1958 20.9674 24.3465 21.004C25.4894 21.0403 26.7088 21.328 27.6912 21.9815ZM24.9999 38C26.1044 38 26.9999 37.1046 26.9999 36C26.9999 34.8954 26.1044 34 24.9999 34C23.8953 34 22.9999 34.8954 22.9999 36C22.9999 37.1046 23.8953 38 24.9999 38Z" fill="#333333"/>
</svg>
